neru-light-classic/32x32/apps/upsource.svg

<?xml version="1.0" encoding="UTF-8" standalone="no"?>
<svg
   xmlns:dc="http://purl.org/dc/elements/1.1/"
   xmlns:cc="http://creativecommons.org/ns#"
   xmlns:rdf="http://www.w3.org/1999/02/22-rdf-syntax-ns#"
   xmlns:svg="http://www.w3.org/2000/svg"
   xmlns="http://www.w3.org/2000/svg"
   xmlns:sodipodi="http://sodipodi.sourceforge.net/DTD/sodipodi-0.dtd"
   xmlns:inkscape="http://www.inkscape.org/namespaces/inkscape"
   height="32"
   width="32"
   version="1"
   id="svg28"
   sodipodi:docname="upsource.svg"
   inkscape:version="0.92.1 r">
  <metadata
     id="metadata34">
    <rdf:RDF>
      <cc:Work
         rdf:about="">
        <dc:format>image/svg+xml</dc:format>
        <dc:type
           rdf:resource="http://purl.org/dc/dcmitype/StillImage" />
      </cc:Work>
    </rdf:RDF>
  </metadata>
  <defs
     id="defs32" />
  <sodipodi:namedview
     pagecolor="#ffffff"
     bordercolor="#666666"
     borderopacity="1"
     objecttolerance="10"
     gridtolerance="10"
     guidetolerance="10"
     inkscape:pageopacity="0"
     inkscape:pageshadow="2"
     inkscape:window-width="640"
     inkscape:window-height="480"
     id="namedview30"
     showgrid="false"
     inkscape:zoom="6.2313785"
     inkscape:cx="-19.915655"
     inkscape:cy="6.035373"
     inkscape:current-layer="svg28" />
  <path
     style="fill:#ff8c2a;fill-opacity:1;stroke-width:0.69999999"
     d="m 30.000001,6.9687504 c -0.05413,-0.578542 -0.119792,-1.157197 -0.335937,-1.669922 -0.281373,-0.667454 -0.689503,-1.267628 -1.19336,-1.7714849 -0.503857,-0.503857 -1.10403,-0.911987 -1.771484,-1.193359 -0.511546,-0.215648 -1.088925,-0.279572 -1.666016,-0.333984 H 16 V 16.000001 h 14.000001 z"
     id="path6-2"
     inkscape:connector-curvature="0" />
  <path
     style="fill:#2086e7;fill-opacity:1;stroke-width:0.69999999"
     d="M 6.964844,2.0000005 C 6.387754,2.0544104 5.810374,2.1183374 5.298828,2.3339855 4.631374,2.6153575 4.031201,3.0234875 3.527345,3.5273445 3.023488,4.0312014 2.615358,4.6313754 2.333986,5.2988295 2.118338,5.8103744 2.054413,6.3877544 2.000001,6.9648444 V 16.000001 H 16 V 2.0000005 Z"
     id="path4-8"
     inkscape:connector-curvature="0" />
  <path
     style="fill:#2086e7;fill-opacity:1;stroke-width:0.69999999"
     d="m 25.035157,30 c 0.577089,-0.05441 1.154471,-0.118337 1.666017,-0.333985 0.667454,-0.281372 1.267627,-0.689502 1.771483,-1.193359 0.503857,-0.503857 0.911987,-1.104031 1.193359,-1.771485 0.215647,-0.511545 0.279573,-1.088925 0.333985,-1.666015 v -9.035155 h -14 V 30 Z"
     id="path4-8-7"
     inkscape:connector-curvature="0" />
  <path
     style="fill:#6655e4;fill-opacity:1;stroke-width:0.69999999"
     d="m 2,25.03125 c 0.05413,0.578542 0.119792,1.157197 0.335937,1.669922 0.281373,0.667454 0.689503,1.267628 1.19336,1.771485 0.503857,0.503857 1.10403,0.911987 1.771484,1.193359 C 5.812327,29.881664 6.389707,29.945588 6.966798,30 h 9.033203 V 16.000001 H 2 Z"
     id="path6-2-8"
     inkscape:connector-curvature="0" />
  <rect
     style="opacity:1;fill:#3f3f3f;fill-opacity:1;fill-rule:evenodd;stroke:none;stroke-width:0.78646272;stroke-linecap:round;stroke-linejoin:bevel;stroke-miterlimit:4;stroke-dasharray:none;stroke-dashoffset:0;stroke-opacity:1"
     id="rect4497-3-361"
     width="21.423727"
     height="21.423727"
     x="5.2881389"
     y="5.288137"
     ry="4.2349939" />
  <g
     id="g4568"
     transform="matrix(0.93392595,0,0,0.9352913,4.8589241,33.316904)"
     style="stroke-width:1.06996691">
    <path
       inkscape:connector-curvature="0"
       id="path18"
       d="M 5.9364127,-11.496454 H 13.936412"
       style="fill:none;stroke:#ffffff;stroke-width:2.13993382;stroke-linecap:round;stroke-opacity:1" />
    <path
       inkscape:connector-curvature="0"
       id="path22"
       style="fill:none;stroke:#ffffff;stroke-width:2.13993359;stroke-linecap:round;stroke-linejoin:bevel;stroke-opacity:1"
       d="m 9.9364112,-25.496695 -4e-6,6.000001 c 0,1.514679 -1.043947,2.024798 -1.999997,2.000001 -0.89596,0.0036 -2.0000015,-0.466262 -2.0000015,-2.000001 l 4e-6,-6.000001" />
    <path
       inkscape:connector-curvature="0"
       id="path26"
       d="m 13.936412,-21.496697 c 0,0 4.000003,0.464501 4.000003,-1.999997 0,-2.464501 -4.000003,-2.000001 -4.000003,-2.000001 m 9.8e-5,8.000099 v -8.000001"
       style="fill:none;stroke:#ffffff;stroke-width:2.13993359;stroke-linecap:round;stroke-linejoin:bevel;stroke-opacity:1" />
  </g>
</svg>

<svg xmlns="http://www.w3.org/2000/svg" height="32" width="32" version="1"><path d="M30 6.969c-.054-.579-.12-1.157-.336-1.67A5.563 5.563 0 0 0 26.7 2.334c-.511-.216-1.089-.28-1.666-.334H16v14h14z" fill="#ff8c2a"/><path d="M6.965 2c-.577.054-1.155.118-1.666.334a5.563 5.563 0 0 0-2.965 2.965c-.216.511-.28 1.089-.334 1.666V16h14V2zM25.035 30c.577-.054 1.155-.118 1.666-.334a5.563 5.563 0 0 0 2.965-2.965c.216-.511.28-1.089.334-1.666V16H16v14z" fill="#2086e7"/><path d="M2 25.031c.054.579.12 1.157.336 1.67A5.563 5.563 0 0 0 5.3 29.666c.511.216 1.089.28 1.666.334H16V16H2z" fill="#6655e4"/><rect width="21.424" height="21.424" x="5.288" y="5.288" ry="4.235" fill="#3f3f3f" fill-rule="evenodd"/><g stroke-width="2.14" fill="none" stroke="#fff" stroke-linecap="round"><path d="M5.936-11.496h8" transform="matrix(.93393 0 0 .9353 4.859 33.317)"/><path d="M9.936-25.497v6c0 1.515-1.044 2.025-2 2-.896.004-2-.466-2-2v-6M13.936-21.497s4 .465 4-2c0-2.464-4-2-4-2m0 8v-8" stroke-linejoin="bevel" transform="matrix(.93393 0 0 .9353 4.859 33.317)"/></g></svg>
